X:1
T:Constant Billy
M:4/4
C:
S:Bacon (CJS (MSS) from Daniel Lock)
N:triplets re-notated because abc format v1.3 cannot handle them
A:Field Town (Minster Lovell)
O:English
R:Reel
%:
%:
%P:A/2.(AB)$^4$
P:A(AB)4
K:G
I:speed 400
L:1/8
P:A
|: D2 | G3d        BA B2 | cBAG       FE D2 | BA G2 DE F2 | DE F2 G2         :|\
P:B
   z2 | Bc  d2     ec A2 | B3c        dB G2 | Bc d2 ed c2 | AB c2 d3D        |\
G3d        BA B2 | cBAG       FE D2 | BA G2 DE F2 | DE F2 G2         ||
